src/resources/assets/shifts.svg

<svg xmlns="http://www.w3.org/2000/svg" width="16" height="16"><path d="M 7.5 4 C 7.777344 4 8 4.222656 8 4.5 L 8 8 L 10.5 8 C 10.777344 8 11 8.222656 11 8.5 C 11 8.777344 10.777344 9 10.5 9 L 7.5 9 C 7.222656 9 7 8.777344 7 8.5 L 7 4.5 C 7 4.222656 7.222656 4 7.5 4 Z M 4.496094 2 C 3.117188 2 1.996094 3.121094 1.996094 4.5 L 1.996094 11.5 C 1.996094 12.878906 3.117188 14 4.496094 14 L 11.496094 14 C 12.878906 14 13.996094 12.878906 13.996094 11.5 L 13.996094 4.5 C 13.996094 3.121094 12.878906 2 11.496094 2 Z M 2.996094 4.5 C 2.996094 3.671875 3.667969 3 4.496094 3 L 11.496094 3 C 12.324219 3 12.996094 3.671875 12.996094 4.5 L 12.996094 11.5 C 12.996094 12.328125 12.324219 13 11.496094 13 L 4.496094 13 C 3.667969 13 2.996094 12.328125 2.996094 11.5 Z M 2.996094 4.5" fill="#ddd"/></svg>

<svg xmlns="http://www.w3.org/2000/svg" width="16" height="16"><path d="M7.5 4c.277 0 .5.223.5.5V8h2.5c.277 0 .5.223.5.5s-.223.5-.5.5h-3a.498.498 0 01-.5-.5v-4c0-.277.223-.5.5-.5zM4.496 2a2.502 2.502 0 00-2.5 2.5v7c0 1.379 1.121 2.5 2.5 2.5h7a2.5 2.5 0 002.5-2.5v-7a2.5 2.5 0 00-2.5-2.5zm-1.5 2.5a1.5 1.5 0 011.5-1.5h7a1.5 1.5 0 011.5 1.5v7a1.5 1.5 0 01-1.5 1.5h-7a1.5 1.5 0 01-1.5-1.5zm0 0" fill="#ddd"/></svg>
